X:1
T: Frank's Reel
C: John McCusker
M: C|
L: 1/8
K: A
|: AcBA F2 AF | E2 AB cABc | d2 fd c2 e2 | eaec B4 ||
   AcBA F2 AF | E2 AB cABc | d2 fd c2 ec |[1 BABc A4 :|[2 BABc Aefg ||
   a2 A g2 A f2 | e f2 e cABc | d2 fd c2 e2 | eaec Befg ||
   a2 A g2 A f2 | e f2 e cABc | d2 fd c2 ec | BABc Aefg |
   a2 A g2 A f2 | e f2 e cABc | d2 fd c2 e2 | eaec B4 ||
   AcBA F2 AF | E2 AB cABc | d2 fd c2 ec | BABc A4 |]
